X: 8065
T: Connie The Soldier
R: jig
M: 6/8
K: Dmixolydian
DEG A3|AdB cAG|EGG EGG|EcA GEA|
DEG A3|AdB cAG|EGG EAG|1 E2D D2A,:|2 E2D D2e||
|:fdd ede|fd^c d2e|fed c2c|BAG A2e|
fed ed^c|d2d cAG|EGG EAG|1 E2D D2e:|2 E2D D2A,||

